X:226
T:Sergeant Early's
R:jig
D:Tommy Keane: The Piper's Apron
Z:id:hn-jig-226
M:6/8
K:Dmix
A|FED ~D3|GFG c2e|dcA fed|ecA AGE|
FED EFG|AGE c2e|dcA GEA|DED D2:|
|:B|c2A Bcd|efd e2d|cAA Bcd|ecA A2B|
c2A Bcd|eag efd|dcA GEA|DED D2:|

